cached_logos/va-linux-systems-japan-k-k.svg

<svg xmlns="http://www.w3.org/2000/svg" role="img" viewBox="-2.89 -2.76 143.65 34.65"><title>VA Linux Systems Japan K.K. logo</title><path fill="none" d="M60.02 7.807h2.125l-1.054-2.502zm53.713 15.341l-.509 1.213h1.013zm-43.232 0l-.508 1.213h1.012zm22.422-.215c0-.605-.588-.56-.955-.56h-.224v1.165h.211c.369.001.968.012.968-.605zM35.747 9.693c-.213-.699-.539-1.346-.965-1.935-1.293-1.793-3.505-3.061-6.246-3.707-.924-1.428-1.777-2.364-2.309-2.264-.448.082-.854.738-1.34 1.791-2.554-.092-5.356.264-8.194 1.125C7.82 7.396 1.974 14.002 3.629 19.453c.206.683.52 1.313.93 1.891 1.285 1.814 3.508 3.1 6.268 3.754.927 1.434 1.784 2.375 2.317 2.275.449-.084.856-.742 1.343-1.799 2.555.092 5.36-.264 8.2-1.127 8.868-2.697 14.715-9.297 13.06-14.754zm-23.11 4.632c1.083 0 1.963.881 1.963 1.965s-.88 1.965-1.963 1.965c-1.085 0-1.965-.881-1.965-1.965s.88-1.965 1.965-1.965zm14.089.61c-1.084 0-1.963-.879-1.963-1.965 0-1.084.879-1.961 1.963-1.961 1.087 0 1.968.877 1.968 1.961 0 1.086-.881 1.965-1.968 1.965zm-.035-4.865c-1.644 0-4.457 2.355-6.624 4.359-4.609 6.076-5.532 12.078-6.891 12.33-1.57.291-6.203-9.289-6.203-12.049 0 0 2.639 4.372 5.71 4.372 1.645 0 4.464-2.355 6.63-4.359 4.604-6.08 5.529-12.078 6.888-12.328 1.568-.293 6.201 9.291 6.201 12.045 0-.001-2.638-4.37-5.711-4.37z"/><path fill="#040000" d="M50.327 25.21v-3.566h-1.35v3.766c0 .41 0 .787-.503.787-.141 0-.229-.02-.407-.053l-.121.715c.273.059.547.086.819.086 1.548 0 1.562-.879 1.562-1.735zm20.952-.171l.373.898h1.446l-1.961-4.293h-.782L68.4 25.937h.929l.383-.898h1.567zm-.778-1.891l.504 1.213h-1.013l.509-1.213zm21.505 1.115c.681 0 2.323.105 2.323-1.402 0-.43-.237-.855-.656-1.025-.413-.172-.808-.191-1.632-.191h-1.646v4.293h1.35v-1.674h.261zm-.261-1.889h.224c.367 0 .955-.046.955.56 0 .617-.6.605-.968.605h-.211v-1.165zm22.765 2.665l.37.898h1.445l-1.955-4.293h-.783l-1.965 4.293h.932l.381-.898h1.575zm-.777-1.891l.504 1.213h-1.013l.509-1.213zm23.073 2.789h.81v-4.293h-.904v2.408l-2.343-2.408h-.809v4.293h.903v-2.406zM52.024 2.208l-2.33 5.486-2.315-5.486h-3.131l4.067 8.836h1.661l4.072-8.836zm10.404 0h-1.647l-4.11 8.834h1.957l.802-1.846h3.29l.78 1.846h3.035l-4.107-8.834zM60.02 7.807l1.071-2.502 1.054 2.502H60.02zm19.825-5.599v8.834h6.536V9.395h-3.7V2.208zm11.567.001h2.837v8.834h-2.837zm17.346-.001h-1.9v4.956l-4.924-4.956h-1.701v8.834h1.902v-4.95l4.925 4.95h1.698zm5.871 0v4.697c0 1.217.093 1.793.373 2.358.445.882 1.568 1.912 3.749 1.912 4.604 0 4.376-3.467 4.376-4.297v-4.67h-1.9v4.576c0 .858-.04 1.395-.214 1.781-.346.762-1.058.952-1.66.952-.36 0-1.271-.055-1.686-.952-.174-.377-.199-.775-.199-1.765V2.208h-2.839zm19.714 4.275l3.106-4.275h-2.196l-1.806 2.706-1.834-2.706h-3.305l3.172 4.31-3.387 4.526h2.208l2.074-2.972 2.008 2.972h3.281zm3.504 12.952H47.761c-.123 0-.223.1-.223.223 0 .121.1.219.223.219h90.086c.125 0 .225-.098.225-.219 0-.123-.1-.223-.225-.223zM49.258 17.06c-.353 0-.63-.092-.926-.213l-.231.573c.398.177.772.251 1.204.251.995 0 1.469-.529 1.469-1.064 0-.553-.516-.869-.823-1.035l-.428-.231c-.227-.127-.405-.224-.405-.363 0-.14.172-.232.428-.232.333 0 .624.092.812.154l.203-.578c-.335-.125-.682-.188-1.038-.188-.9 0-1.447.444-1.447 1.02 0 .59.635.93.833 1.035l.412.217c.312.172.41.268.41.402 0 .186-.233.252-.473.252zm15.156.561v-1.557l1.303-1.883h-.808l-.792 1.225-.771-1.225h-1.312l1.301 1.883v1.557zm13.745-.561c-.354 0-.632-.092-.928-.213l-.229.573c.396.177.771.251 1.203.251.994 0 1.469-.529 1.469-1.064 0-.553-.517-.869-.824-1.035l-.426-.231c-.23-.127-.407-.224-.407-.363 0-.14.172-.232.428-.232.333 0 .625.092.813.154l.204-.578c-.335-.125-.684-.188-1.037-.188-.901 0-1.449.444-1.449 1.02 0 .59.636.93.834 1.035l.411.217c.314.172.412.268.412.402-.001.186-.234.252-.474.252zm15.174.561V14.79h1.061v-.609h-3.238v.609h1.072v2.831zm15.178-2.815v-.625h-2.593v3.44h2.613v-.643h-1.51v-.848h1.38v-.595h-1.38v-.729zm15.287 2.815v-3.44h-1.38l-.745 2.049-.742-2.049h-1.38v3.44h.737v-2.67l.976 2.67h.505l.97-2.67v2.67zm12.079-.561c-.354 0-.63-.092-.927-.213l-.227.573c.394.177.771.251 1.202.251.992 0 1.468-.529 1.468-1.064 0-.553-.517-.869-.824-1.035l-.426-.231c-.229-.127-.406-.224-.406-.363 0-.14.173-.232.427-.232.333 0 .625.092.813.154l.204-.578c-.335-.125-.684-.188-1.037-.188-.901 0-1.449.444-1.449 1.02 0 .59.637.93.834 1.035l.412.217c.312.172.411.268.411.402 0 .186-.233.252-.475.252z"/><circle cx="12.637" cy="16.29" r="1.965" fill="#00508E"/><path fill="#00508E" d="M26.201 2.394c-1.359.25-2.284 6.248-6.888 12.328-2.166 2.004-4.985 4.359-6.63 4.359-3.071 0-5.71-4.372-5.71-4.372 0 2.76 4.633 12.34 6.203 12.049 1.359-.252 2.282-6.254 6.891-12.33 2.167-2.004 4.98-4.359 6.624-4.359 3.073 0 5.711 4.369 5.711 4.369 0-2.753-4.633-12.337-6.201-12.044z"/><path fill="#00508E" d="M26.726 11.009c-1.084 0-1.963.877-1.963 1.961 0 1.086.879 1.965 1.963 1.965 1.087 0 1.968-.879 1.968-1.965 0-1.084-.881-1.961-1.968-1.961z"/><path fill="#00508E" d="M39.376 14.578c0-3.037-1.255-5.86-3.402-8.193C32.43 2.531 26.46 0 19.689 0 8.818 0 .006 6.521 0 14.57v.017c.003 2.922 1.168 5.644 3.173 7.924 3.51 4 9.593 6.641 16.515 6.641 10.871 0 19.688-6.527 19.688-14.574zm-16.689 9.869c-2.84.863-5.645 1.219-8.2 1.127-.487 1.057-.894 1.715-1.343 1.799-.533.1-1.39-.842-2.317-2.275-2.76-.654-4.983-1.939-6.268-3.754-.41-.578-.724-1.208-.93-1.891C1.974 14.002 7.82 7.396 16.693 4.703c2.838-.861 5.64-1.217 8.194-1.125.486-1.053.892-1.709 1.34-1.791.532-.1 1.385.836 2.309 2.264 2.741.646 4.953 1.914 6.246 3.707.426.589.752 1.236.965 1.935 1.655 5.457-4.192 12.057-13.06 14.754z"/></svg>

<svg xmlns="http://www.w3.org/2000/svg" role="img" viewBox="-2.89 -2.76 143.65 34.65"><title>VA Linux Systems Japan K.K. logo</title><g><path fill="none" d="M60.02 7.807L62.145 7.807 61.091 5.305zM113.733 23.148L113.224 24.361 114.237 24.361zM70.501 23.148L69.993 24.361 71.005 24.361zM92.923 22.933c0-.605-.588-.56-.955-.56h-.224v1.165h.211C92.324 23.539 92.923 23.55 92.923 22.933zM35.747 9.693c-.213-.699-.539-1.346-.965-1.935-1.293-1.793-3.505-3.061-6.246-3.707-.924-1.428-1.777-2.364-2.309-2.264-.448.082-.854.738-1.34 1.791-2.554-.092-5.356.264-8.194 1.125C7.82 7.396 1.974 14.002 3.629 19.453c.206.683.52 1.313.93 1.891 1.285 1.814 3.508 3.1 6.268 3.754.927 1.434 1.784 2.375 2.317 2.275.449-.084.856-.742 1.343-1.799 2.555.092 5.36-.264 8.2-1.127C31.555 21.75 37.402 15.15 35.747 9.693zM12.637 14.325c1.083 0 1.963.881 1.963 1.965s-.88 1.965-1.963 1.965c-1.085 0-1.965-.881-1.965-1.965S11.552 14.325 12.637 14.325zM26.726 14.935c-1.084 0-1.963-.879-1.963-1.965 0-1.084.879-1.961 1.963-1.961 1.087 0 1.968.877 1.968 1.961C28.694 14.056 27.813 14.935 26.726 14.935zM26.691 10.07c-1.644 0-4.457 2.355-6.624 4.359-4.609 6.076-5.532 12.078-6.891 12.33-1.57.291-6.203-9.289-6.203-12.049 0 0 2.639 4.372 5.71 4.372 1.645 0 4.464-2.355 6.63-4.359 4.604-6.08 5.529-12.078 6.888-12.328 1.568-.293 6.201 9.291 6.201 12.045C32.402 14.439 29.764 10.07 26.691 10.07z"/><path fill="#040000" d="M50.327 25.21v-3.566h-1.35v3.766c0 .41 0 .787-.503.787-.141 0-.229-.02-.407-.053l-.121.715c.273.059.547.086.819.086C50.313 26.945 50.327 26.066 50.327 25.21zM71.279 25.039l.373.898h1.446l-1.961-4.293h-.782L68.4 25.937h.929l.383-.898H71.279zM70.501 23.148l.504 1.213h-1.013L70.501 23.148zM92.006 24.263c.681 0 2.323.105 2.323-1.402 0-.43-.237-.855-.656-1.025-.413-.172-.808-.191-1.632-.191h-1.646v4.293h1.35v-1.674H92.006zM91.745 22.374h.224c.367 0 .955-.046.955.56 0 .617-.6.605-.968.605h-.211V22.374zM114.51 25.039l.37.898h1.445l-1.955-4.293h-.783l-1.965 4.293h.932l.381-.898H114.51zM113.733 23.148l.504 1.213h-1.013L113.733 23.148zM136.806 25.937L137.616 25.937 137.616 21.644 136.712 21.644 136.712 24.052 134.369 21.644 133.56 21.644 133.56 25.937 134.463 25.937 134.463 23.531zM52.024 2.208L49.694 7.694 47.379 2.208 44.248 2.208 48.315 11.044 49.976 11.044 54.048 2.208zM62.428 2.208h-1.647l-4.11 8.834h1.957l.802-1.846h3.29l.78 1.846h3.035L62.428 2.208zM60.02 7.807l1.071-2.502 1.054 2.502H60.02zM79.845 2.208L79.845 11.042 86.381 11.042 86.381 9.395 82.681 9.395 82.681 2.208zM91.412 2.209H94.24900000000001V11.043H91.412zM108.758 2.208L106.858 2.208 106.858 7.164 101.934 2.208 100.233 2.208 100.233 11.042 102.135 11.042 102.135 6.092 107.06 11.042 108.758 11.042zM114.629 2.208v4.697c0 1.217.093 1.793.373 2.358.445.882 1.568 1.912 3.749 1.912 4.604 0 4.376-3.467 4.376-4.297v-4.67h-1.9v4.576c0 .858-.04 1.395-.214 1.781-.346.762-1.058.952-1.66.952-.36 0-1.271-.055-1.686-.952-.174-.377-.199-.775-.199-1.765V2.208H114.629zM134.343 6.483L137.449 2.208 135.253 2.208 133.447 4.914 131.613 2.208 128.308 2.208 131.48 6.518 128.093 11.044 130.301 11.044 132.375 8.072 134.383 11.044 137.664 11.044zM137.847 19.435H47.761c-.123 0-.223.1-.223.223 0 .121.1.219.223.219h90.086c.125 0 .225-.098.225-.219C138.072 19.535 137.972 19.435 137.847 19.435zM49.258 17.06c-.353 0-.63-.092-.926-.213l-.231.573c.398.177.772.251 1.204.251.995 0 1.469-.529 1.469-1.064 0-.553-.516-.869-.823-1.035l-.428-.231c-.227-.127-.405-.224-.405-.363 0-.14.172-.232.428-.232.333 0 .624.092.812.154l.203-.578c-.335-.125-.682-.188-1.038-.188-.9 0-1.447.444-1.447 1.02 0 .59.635.93.833 1.035l.412.217c.312.172.41.268.41.402C49.731 16.994 49.498 17.06 49.258 17.06zM64.414 17.621L64.414 16.064 65.717 14.181 64.909 14.181 64.117 15.406 63.346 14.181 62.034 14.181 63.335 16.064 63.335 17.621zM78.159 17.06c-.354 0-.632-.092-.928-.213l-.229.573c.396.177.771.251 1.203.251.994 0 1.469-.529 1.469-1.064 0-.553-.517-.869-.824-1.035l-.426-.231c-.23-.127-.407-.224-.407-.363 0-.14.172-.232.428-.232.333 0 .625.092.813.154l.204-.578c-.335-.125-.684-.188-1.037-.188-.901 0-1.449.444-1.449 1.02 0 .59.636.93.834 1.035l.411.217c.314.172.412.268.412.402C78.632 16.994 78.399 17.06 78.159 17.06zM93.333 17.621L93.333 14.79 94.394 14.79 94.394 14.181 91.156 14.181 91.156 14.79 92.228 14.79 92.228 17.621zM108.511 14.806L108.511 14.181 105.918 14.181 105.918 17.621 108.531 17.621 108.531 16.978 107.021 16.978 107.021 16.13 108.401 16.13 108.401 15.535 107.021 15.535 107.021 14.806zM123.798 17.621L123.798 14.181 122.418 14.181 121.673 16.23 120.931 14.181 119.551 14.181 119.551 17.621 120.288 17.621 120.288 14.951 121.264 17.621 121.769 17.621 122.739 14.951 122.739 17.621zM135.877 17.06c-.354 0-.63-.092-.927-.213l-.227.573c.394.177.771.251 1.202.251.992 0 1.468-.529 1.468-1.064 0-.553-.517-.869-.824-1.035l-.426-.231c-.229-.127-.406-.224-.406-.363 0-.14.173-.232.427-.232.333 0 .625.092.813.154l.204-.578c-.335-.125-.684-.188-1.037-.188-.901 0-1.449.444-1.449 1.02 0 .59.637.93.834 1.035l.412.217c.312.172.411.268.411.402C136.352 16.994 136.119 17.06 135.877 17.06z"/><circle cx="12.637" cy="16.29" r="1.965" fill="#00508E"/><path fill="#00508E" d="M26.201,2.394c-1.359,0.25-2.284,6.248-6.888,12.328c-2.166,2.004-4.985,4.359-6.63,4.359 c-3.071,0-5.71-4.372-5.71-4.372c0,2.76,4.633,12.34,6.203,12.049c1.359-0.252,2.282-6.254,6.891-12.33 c2.167-2.004,4.98-4.359,6.624-4.359c3.073,0,5.711,4.369,5.711,4.369C32.402,11.685,27.769,2.101,26.201,2.394z"/><path fill="#00508E" d="M26.726,11.009c-1.084,0-1.963,0.877-1.963,1.961c0,1.086,0.879,1.965,1.963,1.965 c1.087,0,1.968-0.879,1.968-1.965C28.694,11.886,27.813,11.009,26.726,11.009z"/><path fill="#00508E" d="M39.376,14.578c0-3.037-1.255-5.86-3.402-8.193C32.43,2.531,26.46,0,19.689,0C8.818,0,0.006,6.521,0,14.57 v0.017c0.003,2.922,1.168,5.644,3.173,7.924c3.51,4,9.593,6.641,16.515,6.641C30.559,29.152,39.376,22.625,39.376,14.578z M22.687,24.447c-2.84,0.863-5.645,1.219-8.2,1.127c-0.487,1.057-0.894,1.715-1.343,1.799c-0.533,0.1-1.39-0.842-2.317-2.275 c-2.76-0.654-4.983-1.939-6.268-3.754c-0.41-0.578-0.724-1.208-0.93-1.891C1.974,14.002,7.82,7.396,16.693,4.703 c2.838-0.861,5.64-1.217,8.194-1.125c0.486-1.053,0.892-1.709,1.34-1.791c0.532-0.1,1.385,0.836,2.309,2.264 c2.741,0.646,4.953,1.914,6.246,3.707c0.426,0.589,0.752,1.236,0.965,1.935C37.402,15.15,31.555,21.75,22.687,24.447z"/></g></svg>
